build/images/content/clients/img_1.svg

<svg width="220" height="220" viewBox="0 0 220 220" fill="none" xmlns="http://www.w3.org/2000/svg">
<path d="M132.64 137.5H141.229C141.519 137.5 141.797 137.385 142.002 137.18C142.208 136.975 142.323 136.696 142.323 136.406C142.323 136.116 142.208 135.838 142.002 135.633C141.797 135.428 141.519 135.312 141.229 135.312H132.64C132.35 135.312 132.071 135.428 131.866 135.633C131.661 135.838 131.546 136.116 131.546 136.406C131.546 136.696 131.661 136.975 131.866 137.18C132.071 137.385 132.35 137.5 132.64 137.5Z" fill="white"/>
<path d="M126.077 144.375H120.765C120.475 144.375 120.196 144.49 119.991 144.695C119.786 144.9 119.671 145.179 119.671 145.469V150.781C119.671 151.071 119.786 151.35 119.991 151.555C120.196 151.76 120.475 151.875 120.765 151.875H126.077C126.367 151.875 126.645 151.76 126.851 151.555C127.056 151.35 127.171 151.071 127.171 150.781V145.469C127.171 145.179 127.056 144.9 126.851 144.695C126.645 144.49 126.367 144.375 126.077 144.375ZM124.983 149.688H121.858V146.562H124.983V149.688Z" fill="white"/>
<path d="M132.64 149.22H148.89C149.18 149.22 149.458 149.105 149.663 148.9C149.868 148.695 149.983 148.416 149.983 148.126C149.983 147.836 149.868 147.558 149.663 147.353C149.458 147.148 149.18 147.032 148.89 147.032H132.64C132.35 147.032 132.071 147.148 131.866 147.353C131.661 147.558 131.546 147.836 131.546 148.126C131.546 148.416 131.661 148.695 131.866 148.9C132.071 149.105 132.35 149.22 132.64 149.22Z" fill="white"/>
<path d="M126.077 156.096H120.765C120.475 156.096 120.196 156.211 119.991 156.417C119.786 156.622 119.671 156.9 119.671 157.19V162.5C119.671 162.79 119.786 163.068 119.991 163.273C120.196 163.478 120.475 163.594 120.765 163.594H126.077C126.367 163.594 126.645 163.478 126.851 163.273C127.056 163.068 127.171 162.79 127.171 162.5V157.187C127.17 156.898 127.055 156.62 126.85 156.416C126.645 156.211 126.367 156.096 126.077 156.096ZM124.983 161.409H121.858V158.284H124.983V161.409Z" fill="white"/>
<path d="M132.64 160.938H141.229C141.519 160.938 141.797 160.822 142.002 160.617C142.208 160.412 142.323 160.134 142.323 159.844C142.323 159.554 142.208 159.275 142.002 159.07C141.797 158.865 141.519 158.75 141.229 158.75H132.64C132.35 158.75 132.071 158.865 131.866 159.07C131.661 159.275 131.546 159.554 131.546 159.844C131.546 160.134 131.661 160.412 131.866 160.617C132.071 160.822 132.35 160.938 132.64 160.938Z" fill="white"/>
<path d="M126.077 167.816H120.765C120.475 167.816 120.196 167.932 119.991 168.137C119.786 168.342 119.671 168.62 119.671 168.91V174.223C119.671 174.513 119.786 174.791 119.991 174.996C120.196 175.201 120.475 175.316 120.765 175.316H126.077C126.367 175.316 126.645 175.201 126.851 174.996C127.056 174.791 127.171 174.513 127.171 174.223V168.91C127.171 168.62 127.056 168.342 126.851 168.137C126.645 167.932 126.367 167.816 126.077 167.816ZM124.983 173.129H121.858V170.004H124.983V173.129Z" fill="white"/>
<path d="M172.8 131.652C172.448 130.633 171.802 129.742 170.943 129.091C170.085 128.44 169.052 128.057 167.977 127.993C166.901 127.928 165.831 128.183 164.9 128.727C163.97 129.271 163.221 130.078 162.75 131.047L160.394 135.89L157.797 141.227V126.094C157.797 125.804 157.682 125.526 157.477 125.321L148.257 116.102C148.052 115.897 147.774 115.781 147.484 115.781H113.994C113.704 115.781 113.426 115.896 113.221 116.102C113.016 116.307 112.9 116.585 112.9 116.875V183.125C112.9 183.415 113.016 183.693 113.221 183.898C113.426 184.104 113.704 184.219 113.994 184.219H156.702C156.992 184.219 157.271 184.104 157.476 183.898C157.681 183.693 157.796 183.415 157.796 183.125V166.138L172.546 135.815C172.862 135.172 173.047 134.473 173.09 133.759C173.134 133.044 173.035 132.328 172.8 131.652ZM155.855 165.128L150.144 169.413L149.989 162.274L161.88 137.831L167.75 140.688L155.855 165.128ZM148.577 119.516L154.062 125H148.577V119.516ZM115.088 182.031V117.969H146.39V126.094C146.39 126.384 146.505 126.662 146.71 126.867C146.915 127.072 147.193 127.188 147.484 127.188H155.609V145.724L147.907 161.555C147.831 161.711 147.793 161.882 147.796 162.055L147.978 170.47H132.64C132.35 170.47 132.071 170.585 131.866 170.79C131.661 170.995 131.546 171.274 131.546 171.564C131.546 171.854 131.661 172.132 131.866 172.337C132.071 172.542 132.35 172.658 132.64 172.658H148.89C148.926 172.656 148.963 172.652 148.999 172.646C149.032 172.646 149.062 172.658 149.096 172.658C149.333 172.658 149.563 172.581 149.752 172.438L155.609 168.044V182.031H115.088ZM170.582 134.858L168.704 138.718L162.837 135.864L164.712 132.004C164.9 131.619 165.161 131.274 165.482 130.99C165.802 130.706 166.176 130.487 166.58 130.347C166.985 130.208 167.414 130.149 167.841 130.174C168.269 130.2 168.687 130.31 169.073 130.497C169.458 130.685 169.802 130.946 170.087 131.267C170.371 131.587 170.589 131.96 170.729 132.365C170.869 132.77 170.928 133.199 170.902 133.626C170.876 134.054 170.767 134.472 170.579 134.858H170.582Z" fill="white"/>
<path d="M126.971 134.401C126.74 134.225 126.449 134.149 126.162 134.188C125.874 134.226 125.614 134.378 125.438 134.609L123.313 137.404L122.303 136.394C122.098 136.188 121.82 136.072 121.529 136.071C121.239 136.07 120.96 136.185 120.754 136.389C120.549 136.594 120.432 136.872 120.432 137.162C120.431 137.453 120.545 137.731 120.75 137.937L122.645 139.833C122.85 140.038 123.128 140.153 123.418 140.154H123.491C123.647 140.143 123.799 140.099 123.936 140.025C124.073 139.951 124.194 139.849 124.288 139.725L127.179 135.937C127.266 135.823 127.33 135.692 127.367 135.553C127.404 135.414 127.413 135.269 127.394 135.126C127.374 134.983 127.327 134.846 127.255 134.722C127.182 134.597 127.086 134.488 126.971 134.401Z" fill="white"/>
<circle cx="110" cy="110" r="108" stroke="#00BBD3" stroke-width="4"/>
<g clip-path="url(#clip0)">
<path d="M76.999 50C76.447 50 75.999 50.448 75.999 51C75.999 51.5519 76.447 51.9999 76.999 51.9999C88.027 51.9999 96.999 60.9719 96.999 71.9999C96.999 72.5519 97.447 72.9999 97.9989 72.9999C98.552 72.9999 98.9989 72.5519 98.9989 71.9999C98.9989 59.869 89.13 50 76.999 50Z" fill="white"/>
<path d="M76.999 55.9999C76.447 55.9999 75.999 56.4479 75.999 56.9998C75.999 57.5518 76.447 57.9998 76.999 57.9998C84.7189 57.9998 90.999 64.2797 90.999 71.9998C90.999 72.5518 91.447 72.9998 91.999 72.9998C92.552 72.9998 92.9989 72.5518 92.9989 71.9998C92.9989 63.178 85.8219 55.9999 76.999 55.9999Z" fill="white"/>
<path d="M76.999 62C76.447 62 75.999 62.448 75.999 63C75.999 63.5519 76.447 63.9999 76.999 63.9999C81.41 63.9999 84.999 67.5889 84.999 71.9999C84.999 72.5519 85.447 72.9999 85.999 72.9999C86.552 72.9999 86.9989 72.5519 86.9989 71.9999C86.9989 66.486 82.5129 62 76.999 62Z" fill="white"/>
<path d="M93.1128 87.5251C90.3918 87.167 87.7088 86.4991 85.1388 85.542C82.6499 84.609 79.8218 85.211 77.9278 87.08L74.7668 90.234C68.1388 86.326 62.6018 80.8 58.6848 74.185L61.8478 71.0291C63.7178 69.1421 64.3218 66.3171 63.3868 63.8341C62.4279 61.2682 61.7589 58.5912 61.3989 55.8661C60.9198 52.4881 57.9948 49.987 54.5759 50.0001H45.8269C45.6229 50.0001 45.4189 50.01 45.217 50.0281C43.3999 50.1921 41.7549 51.0531 40.5858 52.4511C39.4169 53.8501 38.8628 55.6201 39.0289 57.4511C39.9979 66.5591 43.1479 75.436 48.1329 83.116C52.6589 90.224 58.816 96.3689 65.9309 100.881C73.5969 105.843 82.4498 108.986 91.5528 109.973C91.7588 109.991 91.9658 110 92.1738 110C92.1798 110 92.1857 110 92.1928 110C95.9608 109.984 99.0127 106.912 98.9977 103.155V94.4359C99.0768 90.979 96.5527 88.009 93.1128 87.5251ZM96.9978 94.4C96.9978 94.4079 96.9978 94.417 96.9978 94.4249V103.16C97.0078 105.818 94.8488 107.99 92.1859 108.001C92.0299 107.995 91.8799 107.995 91.7478 107.983C82.9739 107.031 74.4218 103.995 67.0089 99.1969C60.1329 94.8359 54.1889 88.9039 49.8149 82.0339C44.9958 74.6101 41.9539 66.0361 41.0188 57.2551C40.9028 55.9731 41.2939 54.7232 42.1209 53.7341C42.9479 52.745 44.1108 52.1361 45.3968 52.0201C45.5398 52.0071 45.6829 52.0001 45.8268 52.0001H54.5848C54.6008 52.0001 54.6168 52.0001 54.6328 52.0001C57.0288 52.0001 59.0819 53.7751 59.4168 56.137C59.7958 59.002 60.5008 61.828 61.5137 64.537C62.1748 66.2929 61.7477 68.289 60.4307 69.618L56.7267 73.314C56.4067 73.633 56.3407 74.125 56.5637 74.517C60.8017 81.957 66.9827 88.1251 74.4357 92.354C74.8277 92.577 75.3177 92.509 75.6357 92.192L79.3357 88.5001C80.6727 87.1811 82.6756 86.7561 84.4377 87.4161C87.1496 88.4261 89.9806 89.1311 92.8416 89.507C95.2717 89.849 97.0587 91.952 96.9978 94.4Z" fill="white"/>
</g>
<rect x="33.207" y="31.7925" width="218.496" height="4" transform="rotate(45 33.207 31.7925)" fill="#00BBD3"/>
<defs>
<clipPath id="clip0">
<rect width="60" height="60" fill="white" transform="translate(39 50)"/>
</clipPath>
</defs>
</svg>

<svg width="220" height="220" fill="none" xmlns="http://www.w3.org/2000/svg"><path d="M132.64 137.5h8.589a1.093 1.093 0 100-2.188h-8.589a1.096 1.096 0 00-.774 1.868c.205.205.484.32.774.32zm-6.563 6.875h-5.312a1.095 1.095 0 00-1.094 1.094v5.312a1.095 1.095 0 001.094 1.094h5.312a1.095 1.095 0 001.094-1.094v-5.312a1.095 1.095 0 00-1.094-1.094zm-1.094 5.313h-3.125v-3.126h3.125v3.126zm7.657-.468h16.25a1.093 1.093 0 100-2.188h-16.25a1.096 1.096 0 00-.774 1.868c.205.205.484.32.774.32zm-6.563 6.876h-5.312a1.092 1.092 0 00-1.094 1.094v5.31a1.093 1.093 0 001.094 1.094h5.312a1.098 1.098 0 001.094-1.094v-5.313a1.093 1.093 0 00-1.094-1.091zm-1.094 5.313h-3.125v-3.125h3.125v3.125zm7.657-.471h8.589a1.094 1.094 0 000-2.188h-8.589a1.095 1.095 0 00-.774 1.867c.205.205.484.321.774.321zm-6.563 6.878h-5.312a1.096 1.096 0 00-1.094 1.094v5.313a1.093 1.093 0 001.094 1.093h5.312a1.093 1.093 0 001.094-1.093v-5.313a1.093 1.093 0 00-1.094-1.094zm-1.094 5.313h-3.125v-3.125h3.125v3.125z" fill="#fff"/><path d="M172.8 131.652a5.445 5.445 0 00-7.9-2.925 5.449 5.449 0 00-2.15 2.32l-2.356 4.843-2.597 5.337v-15.133c0-.29-.115-.568-.32-.773l-9.22-9.219a1.094 1.094 0 00-.773-.321h-33.49a1.094 1.094 0 00-1.094 1.094v66.25a1.094 1.094 0 001.094 1.094h42.708a1.092 1.092 0 001.094-1.094v-16.987l14.75-30.323a5.398 5.398 0 00.254-4.163zm-16.945 33.476l-5.711 4.285-.155-7.139 11.891-24.443 5.87 2.857-11.895 24.44zm-7.278-45.612l5.485 5.484h-5.485v-5.484zm-33.489 62.515v-64.062h31.302v8.125a1.093 1.093 0 001.094 1.094h8.125v18.536l-7.702 15.831a1.097 1.097 0 00-.111.5l.182 8.415H132.64a1.095 1.095 0 00-.774 1.867c.205.205.484.321.774.321h16.25c.036-.002.073-.006.109-.012.033 0 .063.012.097.012.237 0 .467-.077.656-.22l5.857-4.394v13.987h-40.521zm55.494-47.173l-1.878 3.86-5.867-2.854 1.875-3.86a3.267 3.267 0 014.361-1.507 3.279 3.279 0 011.656 1.868 3.256 3.256 0 01-.15 2.493h.003z" fill="#fff"/><path d="M126.971 134.401a1.092 1.092 0 00-1.533.208l-2.125 2.795-1.01-1.01a1.096 1.096 0 00-1.549-.005 1.095 1.095 0 00-.004 1.548l1.895 1.896c.205.205.483.32.773.321h.073a1.1 1.1 0 00.797-.429l2.891-3.788a1.1 1.1 0 00.076-1.215 1.092 1.092 0 00-.284-.321z" fill="#fff"/><circle cx="110" cy="110" r="108" stroke="#00BBD3" stroke-width="4"/><g clip-path="url(#clip0)" fill="#fff"><path d="M76.999 50a1 1 0 000 2c11.028 0 20 8.972 20 20a1 1 0 002 0c0-12.131-9.869-22-22-22z"/><path d="M76.999 56a1 1 0 000 2c7.72 0 14 6.28 14 14a1 1 0 002 0c0-8.822-7.177-16-16-16z"/><path d="M76.999 62a1 1 0 000 2c4.411 0 8 3.589 8 8a1 1 0 002 0c0-5.514-4.486-10-10-10zm16.114 25.525a36.549 36.549 0 01-7.974-1.983 6.863 6.863 0 00-7.211 1.538l-3.161 3.154a45.632 45.632 0 01-16.082-16.049l3.163-3.156a6.83 6.83 0 001.539-7.195 36.397 36.397 0 01-1.988-7.968c-.48-3.378-3.404-5.879-6.823-5.866h-8.75a6.795 6.795 0 00-5.241 2.451 6.778 6.778 0 00-1.556 5 58.793 58.793 0 009.104 25.665 58.182 58.182 0 0017.798 17.765 59.084 59.084 0 0025.622 9.092c.206.018.413.027.62.027h.02c3.768-.016 6.82-3.088 6.805-6.845v-8.72a6.825 6.825 0 00-5.885-6.91zm3.885 6.875v8.76a4.834 4.834 0 01-4.812 4.841c-.156-.006-.306-.006-.438-.018a57.076 57.076 0 01-24.74-8.786 56.187 56.187 0 01-17.193-17.163 56.785 56.785 0 01-8.796-24.779 4.78 4.78 0 011.102-3.52A4.804 4.804 0 0145.827 52h8.806c2.396 0 4.449 1.775 4.784 4.137a38.396 38.396 0 002.097 8.4 4.825 4.825 0 01-1.083 5.081l-3.704 3.696a1 1 0 00-.163 1.203 47.623 47.623 0 0017.872 17.837.999.999 0 001.2-.162l3.7-3.692a4.86 4.86 0 015.102-1.084 38.503 38.503 0 008.404 2.091 4.823 4.823 0 014.156 4.893z"/></g><path fill="#00BBD3" d="M33.207 31.793l154.5 154.5-2.829 2.828-154.5-154.5z"/><defs><clipPath id="clip0"><path fill="#fff" transform="translate(39 50)" d="M0 0h60v60H0z"/></clipPath></defs></svg>
